public/svgs/aboutus/letter7.svg

<svg width="34" height="37" viewBox="0 0 34 37" fill="none" xmlns="http://www.w3.org/2000/svg">
<g filter="url(#filter0_d_3766_1919)">
<path d="M8.37465 11.4208L7.92429 8.74314C8.8774 8.54484 11.4091 8.09038 14.1114 7.63588C16.0657 7.30718 17.5628 7.07004 18.2729 6.9766L18.7229 9.65168C17.7648 9.85215 15.1969 10.3134 12.4505 10.7753C10.5403 11.0966 9.0743 11.3285 8.37465 11.4208ZM19.0138 11.425L19.4593 14.0742L9.11488 15.814L8.66932 13.1649L19.0138 11.425ZM20.1179 17.8033C20.1679 18.1048 20.2193 18.4141 20.2721 18.7245C19.297 18.9305 16.6665 19.4036 13.8546 19.8765C12.0105 20.1867 10.5868 20.4121 9.89704 20.5041L9.40504 17.5788C10.3625 17.3785 12.9162 16.9203 15.6431 16.4617C17.5819 16.1356 19.0699 15.9 19.7774 15.807C19.8975 16.4733 20.0097 17.1483 20.1179 17.8033ZM28.2361 23.3551L28.216 23.2038L28.215 23.198C28.1716 22.8727 28.1272 22.5369 28.0556 22.2024C27.9894 21.8962 27.6504 21.624 27.345 21.6314C27.3184 21.6318 27.2928 21.6342 27.2669 21.6385C26.9771 21.6872 26.7353 21.9732 26.6784 22.2094C26.6393 22.3693 26.6306 22.524 26.6222 22.6601C26.6174 22.7462 26.6125 22.8203 26.602 22.8888C26.5804 23.0297 26.5595 23.1712 26.5386 23.312C26.4634 23.8125 26.3864 24.3294 26.2817 24.8242C26.1919 25.2493 25.9416 25.5246 25.5161 25.6662C25.4682 25.6822 25.4202 25.6983 25.3724 25.715C25.0955 25.8083 24.809 25.9044 24.5329 25.9669C23.8443 26.1207 23.1108 26.2814 22.3822 26.4039C21.6608 26.5252 21.0176 26.5967 20.4153 26.6221C20.32 26.6261 20.0301 26.6382 19.9461 26.5703C19.8612 26.5013 19.8096 26.2107 19.7929 26.1155C19.5418 24.7014 19.2978 23.2628 19.0623 21.8707C18.9993 21.5 18.9363 21.1294 18.8733 20.7587C19.086 20.7076 19.3387 20.6564 19.6025 20.6121C20.0011 20.545 20.3374 20.5071 20.5701 20.492C20.5741 20.512 20.5788 20.5318 20.5835 20.5517C20.7602 21.3132 21.1442 21.5912 21.9096 21.5091C21.975 21.5021 22.0383 21.4935 22.0992 21.4832C22.188 21.4683 22.2735 21.4499 22.3538 21.4277C23.2189 21.1896 23.5582 20.6513 23.3921 19.7821C23.3513 19.5676 23.3006 19.3569 23.2516 19.1532C23.202 18.9455 23.1506 18.7309 23.1124 18.5234C22.5431 15.4278 22.0827 12.9005 21.6641 10.57C21.5819 10.1133 21.506 9.64615 21.4321 9.19469C21.3313 8.57977 21.2273 7.9454 21.1071 7.32176C21.0308 6.924 21.0634 6.77256 21.265 6.58467C21.5854 6.28617 21.6397 5.99044 21.6281 5.79509C21.61 5.49288 21.4352 5.21834 21.1081 4.97807C20.8293 4.77436 20.5313 4.60785 20.2745 4.46776C19.8872 4.25762 19.5535 4.07646 19.2034 4.13533C18.7938 4.20423 18.5597 4.5522 18.2877 4.95588C18.1341 5.18433 17.9793 5.28235 17.6974 5.32978L17.6883 5.3313C15.8777 5.6265 14.2812 5.89102 12.8091 6.1386C11.2094 6.40766 9.74199 6.65912 8.3229 6.90846L8.28596 6.91468C7.7136 7.01094 7.27094 6.97475 6.85303 6.79643C6.55503 6.66925 6.24998 6.59525 5.95477 6.52426L5.95131 6.52351C5.86721 6.50299 5.78386 6.48301 5.7016 6.46153C5.57966 6.43004 5.46836 6.4261 5.3604 6.42226C5.3175 6.42081 5.27255 6.41905 5.22597 6.41555L5.05933 6.40359C5.03231 6.40147 5.00584 6.40259 4.97991 6.40695C4.90861 6.41894 4.84199 6.45481 4.79193 6.50988C4.72385 6.58465 4.69365 6.68638 4.71032 6.78555L4.73812 6.95084C4.75001 7.02149 4.76102 7.08696 4.77138 7.14854L4.7729 7.15761C4.79504 7.29319 4.81379 7.40868 4.8358 7.52762C4.94397 8.1153 5.05528 8.70578 5.16321 9.27617C5.39793 10.5251 5.64103 11.8159 5.85763 13.0879C6.16655 14.9009 6.45694 16.7503 6.73784 18.5393L6.73861 18.5439C6.80668 18.9763 6.87486 19.4094 6.94293 19.8419L6.96419 19.9763C7.09433 20.8016 7.22894 21.6534 7.32517 22.491C7.38514 23.0062 7.46155 23.4525 7.80177 23.7079C8.09872 23.9319 8.46642 23.9067 8.78727 23.8528C8.88061 23.8371 8.98636 23.816 9.11091 23.7877C9.23665 23.7585 9.37146 23.7239 9.50644 23.6625C10.0552 23.4142 10.2666 23.0301 10.1928 22.4173C10.1857 22.3592 10.1785 22.3004 10.1714 22.2423L11.4995 22.0189C11.4956 22.0389 11.4929 22.0587 11.4924 22.0794L11.4909 22.221C11.4895 22.3039 11.4887 22.3786 11.4883 22.4474L11.4879 22.4528C11.4869 22.5896 11.4857 22.7057 11.4826 22.8176C11.4788 22.9262 11.4776 23.0337 11.4759 23.1386C11.4728 23.3778 11.4691 23.625 11.4437 23.8546C11.2759 25.3658 10.6207 26.7604 9.44183 28.1171C8.3428 29.3817 6.93821 30.4505 5.14712 31.3849C5.09562 31.4116 5.04087 31.4388 4.98731 31.4651C4.84499 31.5344 4.68368 31.6135 4.53125 31.7178C4.3132 31.8677 4.15337 32.2252 4.26273 32.5188C4.35852 32.7753 4.62229 32.9169 4.8375 32.964C4.92192 32.9824 5.0088 32.9838 5.10214 32.9681C5.19159 32.9531 5.27075 32.9244 5.32853 32.9034L5.35175 32.8948C7.55779 32.1092 9.22665 31.2286 10.6034 30.1253C11.5755 29.3466 12.3727 28.4667 12.9729 27.5099C13.6011 26.5091 14.0324 25.3961 14.2543 24.2024C14.3298 23.7957 14.375 23.7395 14.5225 23.6927C14.7059 23.6338 14.83 23.5123 14.9373 23.389C15.1378 23.1586 15.2127 22.8907 15.1486 22.6362C15.0849 22.3803 14.8897 22.1786 14.6006 22.0686C14.4504 22.0118 14.2826 21.9734 14.1146 21.957C13.6344 21.9118 13.1527 21.8695 12.6462 21.826L16.2002 21.2283C16.2969 21.8312 16.3931 22.4349 16.4892 23.038L16.4935 23.0632C16.6689 24.1655 16.8506 25.3054 17.0338 26.4303C17.1084 26.8897 17.1947 27.2997 17.298 27.6843C17.5263 28.5343 18.152 29.0843 19.0144 29.1945C19.4639 29.2516 20.1376 29.3182 20.7948 29.231C21.7684 29.1026 22.5619 28.9858 23.2924 28.8629C24.5732 28.6475 25.699 28.4062 26.7341 28.1248C27.2868 27.9745 27.8058 27.7752 28.2776 27.5332C28.639 27.3478 28.9917 27.0512 29.2444 26.7188C29.5069 26.3734 29.5782 25.8975 29.4301 25.4765C29.302 25.1114 29.032 24.8536 28.6897 24.7678C28.4385 24.7048 28.3766 24.6185 28.3438 24.2808C28.3135 23.97 28.2772 23.6588 28.2361 23.3551Z" fill="black"/>
</g>
<defs>
<filter id="filter0_d_3766_1919" x="0.226562" y="0.124084" width="33.2793" height="36.8549" filterUnits="userSpaceOnUse" color-interpolation-filters="sRGB">
<feFlood flood-opacity="0" result="BackgroundImageFix"/>
<feColorMatrix in="SourceAlpha" type="matrix" values="0 0 0 0 0 0 0 0 0 0 0 0 0 0 0 0 0 0 127 0" result="hardAlpha"/>
<feOffset/>
<feGaussianBlur stdDeviation="2"/>
<feColorMatrix type="matrix" values="0 0 0 0 0.94902 0 0 0 0 0.866667 0 0 0 0 0.486275 0 0 0 1 0"/>
<feBlend mode="normal" in2="BackgroundImageFix" result="effect1_dropShadow_3766_1919"/>
<feBlend mode="normal" in="SourceGraphic" in2="effect1_dropShadow_3766_1919" result="shape"/>
</filter>
</defs>
</svg>

<svg xmlns="http://www.w3.org/2000/svg" width="34" height="37" fill="none" viewBox="0 0 34 37"><g filter="url(#a)"><path fill="#000" d="m8.375 11.42-.45-2.677c.952-.198 3.484-.653 6.186-1.107 1.955-.329 3.452-.566 4.162-.66l.45 2.676c-.958.2-3.526.661-6.272 1.123-1.91.322-3.377.553-4.076.646m10.639.005.445 2.65-10.344 1.739-.446-2.65zm1.104 6.378q.075.455.154.921c-.975.206-3.605.68-6.417 1.152-1.844.31-3.268.536-3.958.628l-.492-2.925c.958-.2 3.511-.659 6.238-1.117 1.939-.326 3.427-.562 4.134-.655.12.666.233 1.341.34 1.996m8.118 5.552-.02-.151-.001-.006a13 13 0 0 0-.16-.996c-.066-.306-.405-.578-.71-.57l-.078.006c-.29.05-.532.335-.589.571-.039.16-.047.315-.056.451q-.006.127-.02.229-.033.21-.063.423c-.076.5-.153 1.017-.257 1.512-.09.425-.34.7-.766.842l-.144.049c-.276.093-.563.19-.84.252-.688.154-1.421.314-2.15.437-.721.121-1.364.193-1.967.218-.095.004-.385.016-.469-.052-.085-.069-.136-.36-.153-.454a531 531 0 0 1-.73-4.245l-.19-1.112c.213-.051.466-.103.73-.147a10 10 0 0 1 .967-.12l.014.06c.176.761.56 1.04 1.326.957a3 3 0 0 0 .444-.081c.865-.238 1.204-.777 1.038-1.646-.04-.214-.091-.425-.14-.629-.05-.207-.101-.422-.14-.63-.569-3.095-1.03-5.623-1.448-7.953-.082-.457-.158-.924-.232-1.375a66 66 0 0 0-.325-1.873c-.076-.398-.044-.55.158-.737.32-.299.375-.595.363-.79q-.028-.455-.52-.817a7 7 0 0 0-.834-.51c-.387-.21-.72-.392-1.07-.333-.41.07-.644.417-.916.82-.154.23-.309.327-.59.375l-.01.001c-1.81.295-3.407.56-4.879.808-1.6.269-3.067.52-4.486.77l-.037.006c-.572.096-1.015.06-1.433-.119a5.6 5.6 0 0 0-.898-.272H5.95l-.25-.062c-.121-.032-.233-.036-.34-.04l-.135-.006-.167-.012a.32.32 0 0 0-.267.106.33.33 0 0 0-.082.276l.028.165.033.198.002.009c.022.135.04.25.063.37.108.587.22 1.178.327 1.748.235 1.25.478 2.54.695 3.812.309 1.813.599 3.662.88 5.451v.005l.205 1.298.021.134c.13.826.265 1.677.361 2.515.06.515.137.962.477 1.217.297.224.664.199.985.145q.14-.023.324-.065c.126-.03.26-.064.395-.125.55-.249.76-.633.687-1.246l-.022-.175 1.329-.223a.4.4 0 0 0-.008.06l-.001.142-.003.226v.006c-.001.137-.002.253-.005.365q-.005.163-.007.32a8 8 0 0 1-.032.717c-.168 1.51-.823 2.905-2.002 4.262-1.1 1.265-2.504 2.334-4.295 3.268l-.16.08c-.142.07-.303.148-.456.253-.218.15-.378.507-.268.8.096.257.36.399.575.446q.124.028.264.004c.09-.015.169-.044.227-.065l.023-.008c2.206-.786 3.875-1.666 5.251-2.77.973-.778 1.77-1.658 2.37-2.615.628-1 1.06-2.114 1.281-3.308.076-.406.121-.463.269-.51.183-.058.307-.18.414-.303.2-.23.276-.498.212-.753-.064-.256-.26-.457-.548-.567a2 2 0 0 0-.486-.112c-.48-.045-.962-.088-1.469-.131l3.554-.598.29 1.81.004.025c.175 1.103.357 2.242.54 3.367.074.46.16.87.264 1.254.228.85.854 1.4 1.716 1.51.45.058 1.124.124 1.78.037a71 71 0 0 0 2.498-.368 36 36 0 0 0 3.442-.738 8 8 0 0 0 1.544-.592c.361-.185.714-.482.966-.814.263-.346.334-.822.186-1.242-.128-.366-.398-.623-.74-.71-.252-.062-.313-.148-.346-.486q-.046-.468-.108-.926"/></g><defs><filter id="a" width="33.279" height="36.855" x=".227" y=".124" color-interpolation-filters="sRGB" filterUnits="userSpaceOnUse"><feFlood flood-opacity="0" result="BackgroundImageFix"/><feColorMatrix in="SourceAlpha" result="hardAlpha" values="0 0 0 0 0 0 0 0 0 0 0 0 0 0 0 0 0 0 127 0"/><feOffset/><feGaussianBlur stdDeviation="2"/><feColorMatrix values="0 0 0 0 0.94902 0 0 0 0 0.866667 0 0 0 0 0.486275 0 0 0 1 0"/><feBlend in2="BackgroundImageFix" result="effect1_dropShadow_3766_1919"/><feBlend in="SourceGraphic" in2="effect1_dropShadow_3766_1919" result="shape"/></filter></defs></svg>
